X: 29
T: That Men a Godly Life Might Live
M: 4/4 % time signature
L: 1/4 % default length
%%staves (S1V1 S1V2) | (S2V1 S2V2) 
V: S1V1 clef=treble 
%%MIDI beat 127 125 110 1
V: S1V2 
%%MIDI beat 127 125 110 1
V: S2V1 clef=bass 
%%MIDI beat 127 125 110 1
V: S2V2 
%%MIDI beat 127 125 110 1
K: C % key signature
%
%%MIDI program 1 0 % Piano 1
%%MIDI program 2 0 % Piano 1
%%MIDI program 3 0 % Piano 1
%%MIDI program 4 0 % Piano 1
%
% 1
[V: S1V1] [Q:1/4=120] z G G G | G G G/A/ B | c2 z c | d d c G |
w: 1.~That man a god- ly life * might live, God did these ten com- 
w: 2.~I am thy God and Lord * a- lone, No o- ther God be- 
w: 3.~By id- le word and speech * pro- fane Take not My ho- ly 
w: 4.~Hal- low the day which God * hath blest, That thou and all thy 
w: 5.~Give to thy par- ents hon- * or due, Be dut- i- ful and 
[V: S1V2]  x D E E | D E D/C/ D | E2 x E | D F E E |
[V: S2V1]  z B, B, C | B, C G, G, | G,2 z G, | B, A, C B, |
[V: S2V2]  x G, E, C, | G, C, B,,/A,,/ G,, | C,2 x C, | G, D, A, E, |
% 5
[V: S1V1]  A B c2 | z c d d | c G A G | F2 
w: mand- ments give By his true ser- vant Mo- ses, high
w: sides Me own; On My great mer- cy ven- ture thee,
w: Name in vain; And praise not aught as good and true
w: house may rest; Keep hand and heart from la- bor free,
w: lov- ing too; And help them when their strength de- cays
[V: S1V2]  D G G2 | x F F F | E E C E | D2 
[V: S2V1]  A, D E2 | z A, A,3/2 B,/ | C B, A, C | A,2 
[V: S2V2]  F, G, C,2 | x F, D, D, | A, E, F, C, | D,2 
% 5
[V: S1V1]  z F | A B c2 | _B G B2 | !sintro!_B3/2 A/ G2 | G4 !eintro!|]
w: Up- on the mount Si- na- i. Have mer- cy, Lord. 
w: With all thy heart love thou Me.  *  *  *  * 
w: But what God doth say and do.  *  *  *  * 
w: That God may so work in thee.  *  *  *  * 
w: So shalt thou have length of days.  *  *  *  * 
[V: S1V2]  x D | A, D E2 | D D G2 | G3/2 F/ (E D) | D4 |]
[V: S2V1]  z A, | D B, G,2 | _B, B, D2 | D3/2 D (C =B,//A,//) | B,4 |]
[V: S2V2]  x D, | F, G, C,2 | G,, G,, G,,2 | G,3/2 D,/ (E,/F,/ G,) | G,,4 |]
% 14
%%begintext obeylines justify
%% 6.\tKill thou not out of evil will,
%% \t\t\t\tNor hate, nor render ill for ill;
%% \t\t\t\tBe patient and of gentle mood,
%% \t\t\t\tAnd to thy foe do thou good.
%% 
%% 7.\tBe faithful to thy marriage vows,
%% \t\t\t\tThy heart give only to thy spouse
%% \t\t\t\tKeep thy life pure, and lest thou sin
%% \t\t\t\tKeep thyself with discipline.	
%% 
%% 8.\tSteal not; oppressive acts abhor;
%% \t\t\t\tNor wring their life-blood from the poor;
%% \t\t\t\tBut open wide thy loving hand
%% \t\t\t\tTo all the poor in the land.
%%endtext
%%begintext obeylines justify
%% 9.\tBear not false witness, nor belie
%% \t\t\t\tThy neighbor by foul calumny;
%% \t\t\t\tDefend his innocence from blame,
%% \t\t\t\tWith charity hide his shame.
%% 
%% 10.Thy neighbor's wife desire thou not,
%% \t\t\t\tHis house, nor aught that he hath got
%% \t\t\t\tBut wish that his such good may be
%% \t\t\t\tAs thy heart doth wish for thee.
%% 
%% 11.God these commandments gave, therein
%% \t\t\t\tTo show thee, son of man, thy sin,
%% \t\t\t\tAnd make thee also well perceive
%% \t\t\t\tHow man for God ought to live.	
%%endtext
%%begintext obeylines justify
%% 
%% 12.Help us, Lord Jesus Christ, for we
%% \t\t\t\tA Mediator have in thee;
%% \t\t\t\tWithout thy help our works so vain
%% \t\t\t\tMerit naught but endless pain.
%%endtext


